Numix-GalliumOS/16/mimetypes/application-script-blank.svg

<?xml version="1.0" encoding="UTF-8" standalone="no"?>
<svg
   xmlns:dc="http://purl.org/dc/elements/1.1/"
   xmlns:cc="http://creativecommons.org/ns#"
   xmlns:rdf="http://www.w3.org/1999/02/22-rdf-syntax-ns#"
   xmlns:svg="http://www.w3.org/2000/svg"
   xmlns="http://www.w3.org/2000/svg"
   xmlns:sodipodi="http://sodipodi.sourceforge.net/DTD/sodipodi-0.dtd"
   xmlns:inkscape="http://www.inkscape.org/namespaces/inkscape"
   width="16"
   height="16"
   viewBox="0 0 16 16"
   id="svg2"
   version="1.1"
   inkscape:version="0.48.5 r10040"
   sodipodi:docname="application-script-blank.svg">
  <metadata
     id="metadata20">
    <rdf:RDF>
      <cc:Work
         rdf:about="">
        <dc:format>image/svg+xml</dc:format>
        <dc:type
           rdf:resource="http://purl.org/dc/dcmitype/StillImage" />
      </cc:Work>
    </rdf:RDF>
  </metadata>
  <defs
     id="defs18" />
  <sodipodi:namedview
     pagecolor="#ffffff"
     bordercolor="#666666"
     borderopacity="1"
     objecttolerance="10"
     gridtolerance="10"
     guidetolerance="10"
     inkscape:pageopacity="0"
     inkscape:pageshadow="2"
     inkscape:window-width="1280"
     inkscape:window-height="970"
     id="namedview16"
     showgrid="true"
     inkscape:zoom="20.85965"
     inkscape:cx="7.1188018"
     inkscape:cy="7.0904674"
     inkscape:window-x="0"
     inkscape:window-y="0"
     inkscape:window-maximized="1"
     inkscape:current-layer="svg2">
    <inkscape:grid
       type="xygrid"
       id="grid3008" />
  </sodipodi:namedview>
  <path
     style="fill:#dcdcdc;fill-opacity:1"
     d="M 2.667969,-4.456e-4 C 2.324219,-4.456e-4 2,0.3378124 2,0.6964471 L 2,15.303108 C 2,15.641365 2.34375,16 2.667969,16 l 10.664062,0 C 13.65625,16 14,15.641365 14,15.303108 L 14,3.9995542 10,-4.456e-4 z"
     id="path4"
     inkscape:connector-curvature="0"
     sodipodi:nodetypes="ssssssccs" />
  <path
     style="fill:#000000;fill-opacity:0.19599998"
     d="m 10.583223,3.3315852 0.0154,0.01953 0.04005,-0.01953 z m 0.02978,0.667969 3.387,3.664062 0,-3.664062 z"
     id="path6"
     inkscape:connector-curvature="0"
     sodipodi:nodetypes="cccccccc" />
  <path
     style="fill:#ffffff;fill-opacity:0.39200003"
     d="m 10,-4.456e-4 3.996396,3.9999998 -3.383784,0 C 10.313513,3.9995542 10,3.6824372 10,3.3833382 z"
     id="path8"
     inkscape:connector-curvature="0"
     sodipodi:nodetypes="ccssc" />
  <g
     style="fill:#545454"
     id="g10"
     transform="matrix(1.4992678,0,0,1.5247768,-3.9941426,-4.5477238)">
    <path
       d="m 6.457031,10.328125 c 0,0.203125 0.054688,0.351563 0.160157,0.445313 0.105468,0.08984 0.261718,0.136718 0.464843,0.140624 l 0,0.417969 C 6.738281,11.328125 6.472656,11.242188 6.285156,11.074219 6.097656,10.90625 6,10.667969 6,10.359375 L 6,9.453125 C 6,9.246094 5.945312,9.101562 5.832031,9.011719 5.714844,8.921875 5.550781,8.878906 5.332031,8.878906 l 0,-0.421875 C 5.570312,8.453125 5.738281,8.40625 5.84375,8.3125 5.949219,8.222656 6,8.082031 6,7.890625 L 6,6.976562 C 6,6.667969 6.101562,6.429688 6.296875,6.257812 6.492188,6.085938 6.753906,6 7.082031,6 l 0,0.414062 c -0.414062,0.011719 -0.625,0.210938 -0.625,0.59375 l 0,0.882813 c 0,0.425781 -0.199219,0.679687 -0.605469,0.757813 l 0,0.035156 c 0.40625,0.078125 0.605469,0.332031 0.605469,0.757812 l 0,0.886719"
       id="path12"
       inkscape:connector-curvature="0" />
    <path
       d="M 10.140625,8.648438 C 9.738281,8.570312 9.535156,8.316406 9.535156,7.890625 l 0,-0.882813 C 9.535156,6.625 9.328125,6.425781 8.917969,6.414062 L 8.917969,6 c 0.335937,0 0.597656,0.085938 0.785156,0.261719 0.191406,0.171875 0.289063,0.410156 0.289063,0.714843 l 0,0.914063 c 0,0.191406 0.054687,0.335937 0.160156,0.425781 0.105468,0.089844 0.277344,0.136719 0.515625,0.140625 l 0,0.421875 c -0.222657,0 -0.390625,0.042969 -0.503907,0.132813 -0.113281,0.089843 -0.171874,0.234375 -0.171874,0.441406 l 0,0.90625 c 0,0.304687 -0.09375,0.542969 -0.28125,0.710937 -0.183594,0.171876 -0.449219,0.257813 -0.792969,0.261719 l 0,-0.417969 c 0.203125,-0.0039 0.355469,-0.05078 0.460937,-0.140624 0.105469,-0.09375 0.15625,-0.242188 0.15625,-0.445313 l 0,-0.886719 c 0,-0.226562 0.050782,-0.398437 0.148438,-0.519531 C 9.785156,8.804688 9.9375,8.722656 10.140625,8.683594 l 0,-0.035156"
       id="path14"
       inkscape:connector-curvature="0" />
  </g>
</svg>

<svg xmlns="http://www.w3.org/2000/svg" viewBox="0 0 16 16">
 <path d="m 2.668 0 c -0.344 0 -0.668 0.338 -0.668 0.697 l 0 14.607 c 0 0.338 0.344 0.697 0.668 0.697 l 10.664 0 c 0.324 0 0.668 -0.359 0.668 -0.697 l 0 -11.304 -4 -4 z" style="fill:#dcdcdc;fill-opacity:1"/>
 <path d="m 10.583 3.332 0.015 0.02 0.04 -0.02 z m 0.03 0.668 3.387 3.664 0 -3.664 z" style="fill:#000;fill-opacity:0.196"/>
 <path d="m 10 0 3.996 4 -3.384 0 c -0.299 0 -0.613 -0.317 -0.613 -0.616 z" style="fill:#fff;fill-opacity:0.392"/>
 <g transform="matrix(1.4992678,0,0,1.5247768,-3.9941426,-4.5477238)" style="fill:#555;fill-opacity:1">
  <path d="m 6.457 10.328 c 0 0.203 0.055 0.352 0.16 0.445 0.105 0.09 0.262 0.137 0.465 0.141 l 0 0.418 c -0.344 -0.004 -0.609 -0.09 -0.797 -0.258 -0.188 -0.168 -0.285 -0.406 -0.285 -0.715 l 0 -0.906 c 0 -0.207 -0.055 -0.352 -0.168 -0.441 -0.117 -0.09 -0.281 -0.133 -0.5 -0.133 l 0 -0.422 c 0.238 -0.004 0.406 -0.051 0.512 -0.145 0.105 -0.09 0.156 -0.23 0.156 -0.422 l 0 -0.914 c 0 -0.309 0.102 -0.547 0.297 -0.719 0.195 -0.172 0.457 -0.258 0.785 -0.258 l 0 0.414 c -0.414 0.012 -0.625 0.211 -0.625 0.594 l 0 0.883 c 0 0.426 -0.199 0.68 -0.605 0.758 l 0 0.035 c 0.406 0.078 0.605 0.332 0.605 0.758 l 0 0.887" style="fill:#555"/>
  <path d="m 10.141 8.648 c -0.402 -0.078 -0.605 -0.332 -0.605 -0.758 l 0 -0.883 c 0 -0.383 -0.207 -0.582 -0.617 -0.594 l 0 -0.414 c 0.336 0 0.598 0.086 0.785 0.262 0.191 0.172 0.289 0.41 0.289 0.715 l 0 0.914 c 0 0.191 0.055 0.336 0.16 0.426 0.105 0.09 0.277 0.137 0.516 0.141 l 0 0.422 c -0.223 0 -0.391 0.043 -0.504 0.133 -0.113 0.09 -0.172 0.234 -0.172 0.441 l 0 0.906 c 0 0.305 -0.094 0.543 -0.281 0.711 -0.184 0.172 -0.449 0.258 -0.793 0.262 l 0 -0.418 c 0.203 -0.004 0.355 -0.051 0.461 -0.141 0.105 -0.094 0.156 -0.242 0.156 -0.445 l 0 -0.887 c 0 -0.227 0.051 -0.398 0.148 -0.52 c 0.102 -0.117 0.254 -0.199 0.457 -0.238 l 0 -0.035" style="fill:#555"/>
 </g>
</svg>
